X: 32332
T: Pilling Moss
R: polka
M: 2/4
K: Gmajor
|:e/f/|g>f gd|cB AG|B/c/d A>B|cA F>f|
g>f gd|cB AG|Bd AA/c/|BG G-:|
|:G/A/|BG dG|eG dG|BG d>B|cA F/E/D/c/|
BG d>G|eG dG/G/|Bd A>c|BG G-:|

